public/svg/color/zilla.svg

<svg xmlns="http://www.w3.org/2000/svg" width="32" height="32" viewBox="0 0 32 32"><g fill="none"><circle cx="16" cy="16" r="16" fill="#00004D"/><path fill="#FFF" d="M15.5045214,6.27364147 C15.4125301,6.66372299 15.1365564,7.89464688 15.0111137,8.71815231 C14.9609367,9.05622295 14.7518657,9.50698382 15.3372646,9.7497012 C15.2034591,9.77570664 15.1616449,9.79304359 15.1198307,9.78437512 C14.7016886,9.73236425 14.2751837,9.6716849 13.8570416,9.61967403 C13.7650504,9.61100555 13.6479706,9.5936686 13.5643422,9.63701099 C13.0040318,9.93173924 12.7531466,10.633886 13.0374832,11.232011 C13.1963772,11.5700816 13.2465542,11.8821468 13.1796515,12.2375544 C13.1629258,12.3242392 13.1963772,12.4282609 13.2298285,12.5062772 C13.5559793,13.3037772 13.6145192,14.1012772 13.3552712,14.9334511 C13.3134569,15.0634783 13.3385455,15.2195109 13.3469083,15.3582066 C13.363634,15.6269294 13.3803597,15.8956522 13.4054482,16.164375 C12.995669,15.8349729 12.5440755,15.5402446 12.201199,15.1414946 C11.8666854,14.7514131 11.6910657,14.2399729 11.7328799,13.6765218 C11.7412428,13.5725001 11.6576144,13.4511414 11.5907116,13.3557881 C11.3983663,13.0697283 11.1725696,12.809674 11.0136756,12.5062772 C10.7878788,12.0728533 10.5119051,11.8908153 10.0603116,12.029511 C9.83451493,12.0988588 9.6254439,12.2462229 9.43309855,12.393587 C9.26584172,12.5149457 9.12367342,12.6709783 8.97314227,12.809674 C8.95641659,12.792337 8.93132806,12.7750001 8.91460238,12.7576631 C8.9396909,12.6969838 8.94805375,12.6276359 8.98150511,12.5669566 C9.21566467,12.1335327 9.20730183,12.1422012 8.88115102,11.7781251 C8.25393791,11.0759784 7.71035322,10.3218208 7.47619366,9.36828817 C7.35911388,8.89152187 7.21694558,8.42342405 7.09150296,7.95532623 C6.46428986,8.73548926 6.38066144,11.5440762 6.9995117,12.6536414 C6.80716635,11.6741033 6.614821,10.7465762 6.83225488,9.79304359 C6.87406908,10.0097555 6.89915761,10.217799 6.90752045,10.434511 C6.94097181,11.2060055 7.12495433,11.9341577 7.45110514,12.6189675 C7.51800787,12.7663316 7.71035322,12.8530164 7.85252153,12.9570381 C7.90269857,12.991712 7.9696013,13.009049 8.02814119,13.0350544 C8.01977835,13.0697283 8.01977835,13.1044022 8.01141551,13.1304077 C7.70199038,13.1130707 7.40092809,13.0783968 7.09150296,13.0697283 C6.89079477,13.0610598 6.65663521,13.009049 6.49774122,13.0957338 C6.28867019,13.208424 6.12141336,13.4251359 6.00433358,13.6418479 C5.97088221,13.7025272 6.13813904,13.9452446 6.26358166,14.0405979 C6.59809532,14.2919837 6.82389204,14.569375 6.77371499,15.0374729 C6.76535215,15.1501631 6.89079477,15.3495381 6.9995117,15.3928805 C7.30057399,15.5055707 7.38420241,15.7309511 7.43437946,16.0170109 C7.46783082,16.1990489 7.49291935,16.4330978 7.60999913,16.5371196 C7.98632699,16.8838587 8.10340677,17.2999457 8.11176961,17.8027174 C8.12013245,18.1234511 8.28738928,18.4528532 8.24557507,18.7649185 C8.2121237,19.0336413 8.26230075,19.2330163 8.37101769,19.3890489 L8.36265485,19.3890489 C8.37101769,19.3977174 8.37938053,19.4063858 8.38774337,19.4150543 C8.4546461,19.5190761 8.54663736,19.6057608 8.6553543,19.6837771 C8.78079692,19.8051358 8.87278817,19.8918206 8.87278817,19.8918206 C8.87278817,19.8918206 9.24911604,20.2992391 9.25747888,20.6979891 C9.26584172,21.0967391 9.23239035,21.1487499 9.34947013,21.5041575 C9.46654991,21.8508967 9.6254439,22.128288 9.67562095,22.4230162 C9.72579799,22.7177445 9.61708106,22.8044293 9.79270073,22.9951358 C9.96832039,23.1858423 10.1606657,23.3158695 10.3613739,23.5325814 C10.5537193,23.7579619 10.8296931,23.8359782 11.0136756,24.0266847 C11.1976581,24.2173912 11.4903575,24.5727988 11.7161542,24.7981792 C11.833234,24.9195379 11.992128,25.0148912 12.1092078,25.084239 C12.1426592,25.1189129 12.1593848,25.1362499 12.151022,25.1535868 C11.992128,25.500326 12.3182788,25.4916575 12.4437214,25.6043477 C12.6611553,25.7950542 12.9705805,25.9164129 13.1294744,26.1504618 C13.413811,26.5752173 13.7817761,26.7919292 14.2417323,26.9219564 C14.2835465,26.9306249 14.3337236,26.9392933 14.3504493,26.9652988 C14.4089892,27.0346466 14.4508034,27.1213314 14.5009804,27.1993477 C14.4842547,27.2253531 14.4591662,27.2513585 14.4424405,27.277364 C14.9023968,27.4420651 15.3623531,27.6154346 15.8223094,27.7714672 C15.9143006,27.8061411 16.0313804,27.8061411 16.1150088,27.7801357 C16.4996995,27.6501085 16.8843902,27.5114129 17.2690809,27.3727172 C17.3443465,27.3467118 17.4614263,27.2686955 17.4530634,27.2340216 C17.3945235,26.9566303 17.6203203,26.9999727 17.7457629,26.9306249 C18.0468252,26.7659238 18.3980645,26.6445651 18.6238612,26.4105162 C18.899835,26.1157879 19.1507202,25.8123912 19.5186853,25.6130162 C19.6692164,25.5263314 19.9702787,25.4916575 19.8197475,25.1622553 C19.8113847,25.1449184 19.8950131,25.0755705 19.9368273,25.0322281 C19.9953672,24.9802173 20.0622699,24.9368749 20.1458984,24.8675271 C20.2044382,24.8415216 20.271341,24.7981792 20.3800579,24.7201629 C20.6225803,24.5294564 21.1243508,24.0526901 21.325059,23.8013043 C21.5257672,23.5499184 21.851918,23.2378532 21.851918,23.2378532 C21.851918,23.2378532 21.642847,22.7437499 21.7766524,22.310326 L22.4874939,21.7815488 C22.6380251,21.4608152 22.6798393,21.3394565 22.8470961,21.0100543 C23.0059901,20.6806521 23.0478043,20.0478532 23.273601,19.7964674 C23.4743092,19.5797554 23.7168316,19.4063858 23.7084688,19.2676902 C23.7586458,19.137663 23.7753715,18.9902989 23.7586458,18.8082608 C23.7335573,18.5828804 23.8088229,18.3488315 23.8339114,18.1234511 C23.8506371,17.9327446 23.8339114,17.742038 23.8840885,17.56 C23.9677169,17.2652717 24.0262568,16.9185326 24.2102393,16.7104891 C24.4109475,16.4851087 24.5447529,16.2857337 24.5698414,15.982337 C24.59493,15.7222826 24.6952841,15.5142392 24.9545321,15.3928805 C25.0799748,15.3322011 25.2054174,15.1241576 25.2054174,14.985462 C25.1970545,14.5953805 25.3224972,14.3179892 25.6402851,14.1099457 C25.7322764,14.0492664 25.7991791,13.9452446 25.8911704,13.8758968 C26.0417015,13.7632066 26.016613,13.6331794 25.9329846,13.4858153 C25.7155507,13.0957338 25.3893999,12.9570381 24.9545321,13.0350544 C24.6283813,13.0957338 24.1349737,13.1304077 23.959354,13.1304077 C23.7837344,13.1304077 23.909177,13.0003805 23.909177,13.0003805 C24.5280272,12.9830435 24.6032928,12.4716033 24.7454611,12.0555164 C24.8625409,11.7087773 24.9294436,11.3447012 24.9879835,10.9806251 C25.0465234,10.633886 25.0465234,10.4691849 25.1134261,9.93173924 C25.1803289,9.3942936 25.3392229,10.9719566 25.0883376,12.2635599 C25.5901081,11.5007338 25.4312141,8.73548926 24.8709037,7.92065232 C24.8541781,7.93798927 24.8374524,7.94665775 24.8374524,7.96399471 C24.8123638,8.06801645 24.7956382,8.17203818 24.7705496,8.27605992 C24.5280272,9.60233707 24.0262568,10.7899186 23.0979814,11.7607881 C22.7551049,12.1161957 22.7718305,12.1248642 23.0059901,12.5842936 C23.0310786,12.6276359 23.0310786,12.6883153 23.0394415,12.7489946 C22.8387333,12.6536414 22.6882021,12.5149457 22.537671,12.3849186 C22.2533344,12.1248642 21.9355464,11.994837 21.5424929,12.0035055 C21.1410765,12.0035055 21.0323595,12.2982338 20.9152798,12.5842936 C20.6978459,13.1044022 20.1877126,13.4251359 20.1709869,14.1186142 C20.1458984,15.1328261 19.2427115,15.6442663 18.6573126,16.3204076 C18.6489497,16.3290761 18.6238612,16.3117391 18.5904099,16.3117391 C18.582047,16.2770652 18.5569585,16.2337228 18.5653213,16.1990489 C18.5653213,15.5749185 18.7325782,14.9421196 18.4566044,14.3439946 C18.4398787,14.3093207 18.4482416,14.2573098 18.4566044,14.2226359 C18.5653213,13.3471196 18.6656754,12.4802718 18.7827552,11.613424 C18.7994809,11.5007338 18.8580208,11.396712 18.9081978,11.2926903 C19.2008973,10.6685599 18.9834634,9.95774468 18.3897017,9.64567947 C18.3227989,9.61100555 18.2308077,9.60233707 18.1555421,9.61100555 C17.8293913,9.65434794 17.5116033,9.71502729 17.1938153,9.75836968 C17.0349214,9.78437512 16.8676645,9.78437512 16.7087705,9.79304359 C16.7004077,9.76703816 16.6920449,9.74103272 16.683682,9.72369577 C16.9512929,9.63701099 17.0850984,9.4723099 17.0265585,9.17758165 C16.8258503,8.18070666 16.6251421,7.1751632 16.4244339,6.17828821 C16.4077083,6.10027191 16.3909826,5.71019039 16.4829738,5.90956539 C16.5749651,6.11760887 16.8676645,7.01046211 17.0349214,7.57391319 C17.1938153,8.12002731 17.319258,8.68347839 17.4614263,9.23826099 C17.2272667,7.68660341 16.8676645,6.17828821 15.9812033,4.80000019 C15.7386809,5.09472845 15.5296099,5.48480996 15.420893,5.77953822 C15.312176,6.07426648 15.0027509,7.0538045 14.8187684,7.68660341 C14.6766001,8.18070666 14.3086351,9.15157621 14.4675291,9.17758165 C14.626423,9.20358708 15.4041673,6.29097843 15.4543443,6.08293495 C15.5045214,5.87489148 15.5965126,5.88355996 15.5045214,6.27364147 Z"/></g></svg>

<svg xmlns="http://www.w3.org/2000/svg" width="32" height="32" viewBox="0 0 32 32"><g fill="none"><circle cx="16" cy="16" r="16" fill="#00004D"/><path fill="#FFF" d="M15.505 6.274c-.092.39-.368 1.62-.494 2.444-.05.338-.26.789.326 1.032-.134.026-.175.043-.217.034-.418-.052-.845-.112-1.263-.164-.092-.009-.209-.026-.293.017-.56.295-.81.997-.527 1.595.16.338.21.65.143 1.006a.499.499 0 00.05.268c.326.798.385 1.595.125 2.427-.042.13-.016.287-.008.425.017.269.033.538.058.806-.41-.329-.86-.624-1.204-1.023a1.993 1.993 0 01-.468-1.464c.008-.104-.075-.226-.142-.321-.193-.286-.418-.546-.577-.85-.226-.433-.502-.615-.954-.476-.225.069-.435.216-.627.364-.167.12-.31.277-.46.416-.017-.018-.042-.035-.058-.052.025-.061.033-.13.067-.191.234-.433.225-.425-.1-.789-.628-.702-1.172-1.456-1.406-2.41-.117-.476-.26-.945-.384-1.413-.628.78-.711 3.59-.092 4.699-.193-.98-.385-1.907-.168-2.861.042.217.067.425.076.642.033.771.217 1.5.543 2.184.067.147.26.234.402.338.05.035.117.052.175.078-.008.035-.008.07-.017.095-.309-.017-.61-.052-.92-.06-.2-.009-.434-.061-.593.026-.21.112-.377.33-.494.546-.033.06.134.303.26.399.334.251.56.528.51.996-.009.113.117.313.226.356.3.113.384.338.434.624.034.182.059.416.176.52.376.347.493.763.502 1.266.008.32.175.65.134.962-.034.269.016.468.125.624h-.008l.025.026c.067.104.159.19.267.269l.218.208s.376.407.384.806c.009.399-.025.45.092.806.118.347.276.624.327.919.05.295-.059.381.117.572.175.19.368.32.568.538.193.225.469.303.653.494.184.19.476.546.702.771.117.122.276.217.393.286.034.035.05.052.042.07-.159.346.167.338.293.45.217.191.527.312.685.546.285.425.653.642 1.113.772.042.009.092.017.108.043.059.07.1.156.151.234-.017.026-.042.052-.059.078.46.165.92.338 1.38.494.092.035.21.035.293.01.385-.13.77-.27 1.154-.408.075-.026.192-.104.184-.139-.058-.277.167-.234.293-.303.3-.165.652-.286.878-.52.276-.295.527-.599.895-.798.15-.087.451-.121.3-.45-.008-.018.076-.087.118-.13.058-.053.125-.096.209-.165.058-.026.125-.07.234-.148a7.87 7.87 0 00.945-.919c.2-.251.527-.563.527-.563s-.21-.494-.075-.928l.71-.528c.151-.321.193-.443.36-.772.159-.33.2-.962.427-1.214.2-.216.443-.39.434-.528a.995.995 0 00.05-.46c-.024-.225.05-.46.076-.685.017-.19 0-.381.05-.563.084-.295.142-.641.326-.85.2-.225.335-.424.36-.728.025-.26.125-.468.385-.59.125-.06.25-.268.25-.407-.008-.39.117-.667.435-.875.092-.06.16-.165.251-.234.15-.113.126-.243.042-.39-.217-.39-.544-.529-.978-.45-.327.06-.82.094-.996.094-.175 0-.05-.13-.05-.13.619-.017.694-.528.836-.944.118-.347.184-.711.243-1.075.059-.347.059-.512.125-1.05.067-.537.226 1.041-.025 2.333.502-.763.343-3.529-.217-4.343-.017.017-.034.026-.034.043-.025.104-.041.208-.066.312-.243 1.326-.745 2.514-1.673 3.485-.343.355-.326.364-.092.823.025.044.025.104.033.165-.2-.095-.35-.234-.501-.364a1.36 1.36 0 00-.996-.381c-.4 0-.51.294-.627.58-.217.52-.727.841-.744 1.535-.025 1.014-.928 1.525-1.514 2.201-.008.01-.033-.008-.067-.008-.008-.035-.033-.078-.025-.113 0-.624.168-1.257-.108-1.855-.017-.035-.009-.087 0-.121.108-.876.209-1.743.326-2.61.016-.112.075-.216.125-.32.293-.624.075-1.335-.518-1.647a.432.432 0 00-.234-.035c-.327.043-.644.104-.962.147-.16.026-.326.026-.485.035-.009-.026-.017-.052-.025-.07.267-.086.401-.25.343-.545l-.603-3c-.016-.078-.033-.468.059-.268.092.208.385 1.1.552 1.664.159.546.284 1.11.426 1.664-.234-1.551-.593-3.06-1.48-4.438a3.67 3.67 0 00-.56.98 43.68 43.68 0 00-.602 1.907c-.142.494-.51 1.465-.351 1.49.158.027.936-2.886.986-3.094.05-.208.143-.2.05.19z"/></g></svg>
